src/app/components/golos-ui/Icon/assets/ic_support_eng.svg

<?xml version="1.0" encoding="UTF-8"?>
<svg width="30px" height="31px" viewBox="0 0 30 31" version="1.1" xmlns="http://www.w3.org/2000/svg" xmlns:xlink="http://www.w3.org/1999/xlink">
    <!-- Generator: Sketch 51.2 (57519) - http://www.bohemiancoding.com/sketch -->
    <title>ic_support_eng</title>
    <desc>Created with Sketch.</desc>
    <defs></defs>
    <g id="FAQ" stroke="none" stroke-width="1" fill="none" fill-rule="evenodd">
        <g transform="translate(-319.000000, -1468.000000)" fill="#FFC80A" id="Group-7">
            <g transform="translate(0.000000, 1202.000000)">
                <g id="Group-22" transform="translate(299.000000, 241.000000)">
                    <g id="ic_support_eng" transform="translate(20.000000, 25.000000)">
                        <path d="M27.3794915,9.79617127 C25.9076271,4.16633149 20.809661,0.158082873 14.9701695,0.158082873 C9.16644068,0.158082873 4.07440678,4.16496133 2.57677966,9.79343094 C1.11220339,10.0678066 0,11.3682652 0,12.9258011 L0,16.5164917 C0,17.9133757 0.895084746,19.1035359 2.1359322,19.5323978 L2.1359322,21.0337569 C2.1359322,25.5416022 5.76610169,29.2098785 10.2277966,29.2098785 L11.2235593,29.2098785 C11.6213559,30.1599171 12.5528814,30.8289006 13.6367797,30.8289006 L16.3016949,30.8289006 C17.7455932,30.8289006 18.9208475,29.6414807 18.9208475,28.1822541 C18.9208475,26.7231989 17.7455932,25.5356077 16.3016949,25.5356077 L13.6367797,25.5356077 C12.5535593,25.5356077 11.6213559,26.2039061 11.2242373,27.1546298 L10.2277966,27.1546298 C6.88762712,27.1546298 4.16983051,24.408989 4.16983051,21.0337569 L4.16983051,18.674674 C4.16983051,18.1067403 3.71491525,17.6470497 3.15288136,17.6470497 C2.53576271,17.6470497 2.03389831,17.1400884 2.03389831,16.5164917 L2.03389831,12.9258011 C2.03389831,12.3022044 2.53576271,11.7952431 3.14813559,11.7952431 L3.38847458,11.796442 L3.39322034,11.796442 C3.87576271,11.796442 4.29220339,11.4532155 4.38949153,10.9748564 C5.41779661,5.89770718 9.86762712,2.21333149 14.9701695,2.21333149 C20.1059322,2.21333149 24.559661,5.89565193 25.5608475,10.9681768 C25.6561017,11.4492762 26.0732203,11.7952431 26.5584746,11.7952431 L26.7862712,11.7952431 C27.4033898,11.7952431 27.9059322,12.3022044 27.9059322,12.9258011 L27.9059322,16.5164917 C27.9059322,17.1400884 27.4033898,17.6470497 26.7862712,17.6470497 C26.2249153,17.6470497 25.769322,18.1067403 25.769322,18.674674 C25.769322,19.2420939 26.2249153,19.7022983 26.7862712,19.7022983 C28.5249153,19.7022983 29.9398305,18.2727017 29.9398305,16.5164917 L29.9398305,12.9258011 C29.9398305,11.3737459 28.8354237,10.0770552 27.3794915,9.79617127 Z M13.6367797,27.5908564 L16.3016949,27.5908564 C16.6240678,27.5908564 16.8869492,27.8564972 16.8869492,28.1822541 C16.8869492,28.5081823 16.6240678,28.7736519 16.3016949,28.7736519 L13.6367797,28.7736519 C13.3144068,28.7736519 13.0522034,28.5081823 13.0522034,28.1822541 C13.0522034,27.8564972 13.3144068,27.5908564 13.6367797,27.5908564 Z" id="Fill-1"></path>
                        <path d="M10.8651456,16.1095052 L8.65988991,16.1095052 L8.65988991,17.5101563 L11.2646484,17.5101563 L11.2646484,18.6 L7.25763494,18.6 L7.25763494,12.7229167 L11.2726385,12.7229167 L11.2726385,13.8167969 L8.65988991,13.8167969 L8.65988991,15.0559896 L10.8651456,15.0559896 L10.8651456,16.1095052 Z M17.3302557,18.6 L15.9359908,18.6 L13.8745561,14.9429688 L13.8745561,18.6 L12.4723011,18.6 L12.4723011,12.7229167 L13.8745561,12.7229167 L15.9319957,16.3799479 L15.9319957,12.7229167 L17.3302557,12.7229167 L17.3302557,18.6 Z M23.6155895,17.8734375 C23.3998569,18.1156262 23.0842528,18.3107197 22.6687678,18.458724 C22.2532827,18.6067282 21.797854,18.6807292 21.302468,18.6807292 C20.5407455,18.6807292 19.9321756,18.4452715 19.4767401,17.974349 C19.0213045,17.5034265 18.7776103,16.8481813 18.7456499,16.0085938 L18.7416548,15.5 C18.7416548,14.9214381 18.8428612,14.4162131 19.045277,13.9843099 C19.2476928,13.5524067 19.5373294,13.2200749 19.9141957,12.9873047 C20.2910619,12.7545344 20.7271815,12.638151 21.2225675,12.638151 C21.9470029,12.638151 22.5096305,12.8056624 22.910467,13.1406901 C23.3113035,13.4757178 23.5450103,13.9755609 23.6115945,14.6402344 L22.2612749,14.6402344 C22.2133343,14.3119341 22.1094646,14.0778219 21.9496626,13.9378906 C21.7898607,13.7979594 21.563478,13.7279948 21.2705078,13.7279948 C20.9189436,13.7279948 20.6472843,13.8786877 20.455522,14.1800781 C20.2637597,14.4814685 20.1665483,14.9120198 20.1638849,15.4717448 L20.1638849,15.8269531 C20.1638849,16.413588 20.2630938,16.8542303 20.4615146,17.1488932 C20.6599353,17.4435562 20.9722102,17.5908854 21.3983487,17.5908854 C21.7632298,17.5908854 22.034889,17.5088116 22.2133345,17.3446615 L22.2133345,16.4324219 L21.2385476,16.4324219 L21.2385476,15.4596354 L23.6155895,15.4596354 L23.6155895,17.8734375 Z" id="ENG"></path>
                    </g>
                </g>
            </g>
        </g>
    </g>
</svg>

<svg width="30" height="31" viewBox="0 0 30 31" xmlns="http://www.w3.org/2000/svg"><g fill="#FFC80A" fill-rule="evenodd"><path d="M27.38 9.796C25.907 4.166 20.81.158 14.97.158 9.166.158 4.074 4.165 2.577 9.793A3.182 3.182 0 0 0 0 12.926v3.59a3.19 3.19 0 0 0 2.136 3.016v1.502c0 4.508 3.63 8.176 8.092 8.176h.996a2.623 2.623 0 0 0 2.413 1.619h2.665c1.444 0 2.619-1.188 2.619-2.647 0-1.459-1.175-2.646-2.62-2.646h-2.664a2.62 2.62 0 0 0-2.413 1.619h-.996c-3.34 0-6.058-2.746-6.058-6.121v-2.36c0-.567-.455-1.027-1.017-1.027a1.126 1.126 0 0 1-1.12-1.13v-3.591c0-.624.503-1.13 1.115-1.13h.245c.483 0 .9-.343.996-.821C5.418 5.898 9.868 2.213 14.97 2.213c5.136 0 9.59 3.683 10.59 8.755.096.481.513.827.998.827h.228c.617 0 1.12.507 1.12 1.13v3.591c0 .624-.503 1.131-1.12 1.131-.561 0-1.017.46-1.017 1.028 0 .567.456 1.027 1.017 1.027 1.739 0 3.154-1.43 3.154-3.186v-3.59a3.183 3.183 0 0 0-2.56-3.13zM13.636 27.591h2.665a.59.59 0 0 1 .585.591.59.59 0 0 1-.585.592h-2.665a.589.589 0 0 1-.585-.592c0-.326.262-.591.585-.591z"/><path d="M10.865 16.11H8.66v1.4h2.605v1.09H7.258v-5.877h4.015v1.094H8.66v1.239h2.205v1.054zm6.465 2.49h-1.394l-2.061-3.657V18.6h-1.403v-5.877h1.403l2.057 3.657v-3.657h1.398V18.6zm6.286-.727c-.216.243-.532.438-.947.586a4.05 4.05 0 0 1-1.367.222c-.761 0-1.37-.236-1.825-.707-.456-.47-.7-1.126-.731-1.965l-.004-.509c0-.579.1-1.084.303-1.516a2.27 2.27 0 0 1 .87-.997 2.44 2.44 0 0 1 1.308-.349c.724 0 1.287.168 1.687.503.401.335.635.835.702 1.5h-1.35c-.049-.33-.153-.563-.312-.703-.16-.14-.387-.21-.68-.21a.913.913 0 0 0-.814.452c-.192.301-.29.732-.292 1.292v.355c0 .587.1 1.027.298 1.322.198.295.51.442.936.442.365 0 .637-.082.815-.246v-.913h-.974v-.972h2.377v2.413z"/></g></svg>
